svg/u1f331.svg

<svg viewBox="0 0 128 128" xmlns="http://www.w3.org/2000/svg">
  <path d="M67.47,48.2l-1.11,18.48c0,0,3.76,10.64,2.71,25.45c-1.01,14.27-4.8,21.49-5.84,23.99 c-1.04,2.5-3.96,5.63,0,6.88s10.64,0.63,13.56-0.42c2.92-1.04,4.37-6.84,4.8-9.18c1.05-5.79,1.63-16.74-0.5-27.54 C79.46,77.56,76,63.33,76,63.33L67.47,48.2z" fill="#99C23B"/>
  <path d="M66.78,45.4c0,0,4.28-13.43,14.12-23.62c9.43-9.76,19.06-12.96,26.78-13.92 c8.51-1.06,11.98-0.95,13.44,0.1s0.94,2.7,0.97,4.16c0.19,10.44,0.58,23.97-11.7,36.35C97.28,61.67,87.94,64.04,77.71,65.09 c-10.22,1.04-9.06-3.62-9.06-3.62L66.78,45.4z" fill="#99C23B"/>
  <path d="M2.98,37.05c-0.37,1.83,9.29,23.31,27.95,30.07c20.09,7.29,39.03,0,39.03,0l1.56-19.34l-4.75-2.38 c0,0-10.07-11.11-21.26-15.21c-11.6-4.25-24.71-4.58-33.64,0.19C6.27,33.38,3.18,36.08,2.98,37.05z" fill="#99C23B"/>
  <path d="M86.68,30.68c-9.3,11.02-13.99,22.13-14.48,25.03s1.12,2.78,2.03,1.55 c1.64-2.22,7.35-12.37,15.85-22.04c7.36-8.36,18.56-17.4,20.2-19.33c1.02-1.2-0.1-2.71-1.64-2.03 C107.1,14.53,96.19,19.41,86.68,30.68z" fill="#E6DC9F"/>
  <path d="M41.43,41c-13.6-4.68-23.55-4.05-25.58-3.37c-2.03,0.68-1.93,2.9,0.48,3.19s12.24,1.27,24.56,5.7 c13.15,4.74,22.52,11.89,24.17,12.86c1.64,0.97,2.71-0.97,1.26-2.71C65.21,55.36,56.43,46.16,41.43,41z" fill="#E6DC9F"/>
</svg>

<svg viewBox="0 0 128 128" xmlns="http://www.w3.org/2000/svg">
  <defs/>
  <path d="M67.47,48.2 L66.36,66.68 C66.36,66.68 70.12,77.32 69.07,92.13 C68.06,106.4 64.27,113.62 63.23,116.12 C62.19,118.62 59.27,121.75 63.23,123 C67.19,124.25 73.87,123.63 76.79,122.58 C79.71,121.54 81.16,115.74 81.59,113.4 C82.64,107.61 83.22,96.66 81.09,85.86 C79.46,77.56 76,63.33 76,63.33 L67.47,48.2 Z" fill="#99C23B"/>
  <path d="M66.78,45.4 C66.78,45.4 71.06,31.97 80.9,21.78 C90.33,12.02 99.96,8.82 107.68,7.86 C116.19,6.8 119.66,6.91 121.12,7.96 C122.58,9.01 122.06,10.66 122.09,12.12 C122.28,22.56 122.67,36.09 110.39,48.47 C97.28,61.67 87.94,64.04 77.71,65.09 C67.49,66.13 68.65,61.47 68.65,61.47 L66.78,45.4 Z" fill="#99C23B"/>
  <path d="M2.98,37.05 C2.61,38.88 12.27,60.36 30.93,67.12 C51.02,74.41 69.96,67.12 69.96,67.12 L71.52,47.78 L66.77,45.4 C66.77,45.4 56.7,34.29 45.51,30.19 C33.91,25.94 20.8,25.61 11.87,30.38 C6.27,33.38 3.18,36.08 2.98,37.05 Z" fill="#99C23B"/>
  <path d="M86.68,30.68 C77.38,41.7 72.69,52.81 72.2,55.71 C71.71,58.61 73.32,58.49 74.23,57.26 C75.87,55.04 81.58,44.89 90.08,35.22 C97.44,26.86 108.64,17.82 110.28,15.89 C111.3,14.69 110.18,13.18 108.64,13.86 C107.1,14.53 96.19,19.41 86.68,30.68 Z" fill="#E6DC9F"/>
  <path d="M41.43,41 C27.83,36.32 17.88,36.95 15.85,37.63 C13.82,38.31 13.92,40.53 16.33,40.82 C18.74,41.11 28.57,42.09 40.89,46.52 C54.04,51.26 63.41,58.41 65.06,59.38 C66.7,60.35 67.77,58.41 66.32,56.67 C65.21,55.36 56.43,46.16 41.43,41 Z" fill="#E6DC9F"/>
</svg>
